X: 32892
T: Position, The
R: jig
M: 6/8
K: Amajor
|:A,|A,CE AGF|ECA, A,CE|B,DF dcB|ecA Ace|
agf ecA|dfd cac|Bba gfg|a3 a2:|
e'2 e' c'2 c'|c'ba ead'|c'ba c'ba|bee e3|
d'd'd' bbb|ggg efg|abc' d'c'b|e'c'a eac'|
e'3 c'3|c'ba eac'|c'ba c'ba|bee e3|
d'd'd' bbb|ggg efg|aec dBG|A3 A2||

